X: 947
T: Swinging around the circle
C: anon.
O: Ireland
B: Francis O'Neill: "The Dance Music of Ireland" (1907) no. 947
R: Hornpipe
Z: Transcribed by Frank Nordberg - http://www.musicaviva.com
F: http://www.musicaviva.com/abc/tunes/ireland/oneill-1001/oneill-1001-094
7.abc
M: C
L: 1/8
K: D
(FG)|ABAG F(DFA)|BAB(c dc)dB|AFdB A(FDF)|E(DEF) E2(FG)|ABAG F(DFA)|BAB(c
dc)dB|A(dcB) AGFE|D2(DE) D2:|
|:(FG)|Ad (3(dcd) Ad (3(dcd)|Adf(d ed)cd|ef(gf ed)c(f|ed)c(B AGF)G|Ad (3(
dcd) Ad (3(dcd)|Adf(d ed)cd|ef(gf e)dc(e|d2)dcd2:|
W:
W:
W: From Musica Viva - http://www.musicaviva.com
W: the Internet center for free sheet music downloads.


